public/fide/fed/MAR.svg

<svg xmlns="http://www.w3.org/2000/svg" data-name="Layer 1" viewBox="0 0 960 960"><defs><mask id="a" width="960.37" height="960.37" x="-.37" y="-.14" maskUnits="userSpaceOnUse"><circle cx="479.81" cy="480.04" r="480.19" style="stroke-width:0;fill:#fff"/></mask></defs><g style="mask:url(#a)"><path d="M-.37-.14H960v960.37H-.37z" style="fill:#c1272d;stroke-width:0"/><path d="M763.61 393.76H546.78l-66.96-205.77-66.96 205.77H196.03l175.38 127.55-66.96 205.96L479.83 600.1l175.38 127.55-66.96-206.33 175.38-127.55ZM420.35 505.37l22.88-69.59h73.15l22.7 69.59-59.27 43.14-59.27-43.14zm82.53-111.42h-46.14l23.07-71.09zm71.85 85.72-14.44-43.89h74.84zm-175.57-43.89-14.44 43.89-60.4-43.89zm-15.57 182.51 23.07-71.28 37.51 27.2-60.59 44.08Zm131.49-43.9 37.51-27.2 23.07 71.09-60.59-43.89Z" style="stroke-width:0;fill:#006233"/></g></svg>

<?xml version="1.0" encoding="UTF-8" standalone="no"?>
<svg
   id="Layer_1"
   data-name="Layer 1"
   viewBox="0 0 960 960"
   version="1.1"
   sodipodi:docname="ma.svg"
   inkscape:version="1.4 (86a8ad7, 2024-10-11)"
   xmlns:inkscape="http://www.inkscape.org/namespaces/inkscape"
   xmlns:sodipodi="http://sodipodi.sourceforge.net/DTD/sodipodi-0.dtd"
   xmlns="http://www.w3.org/2000/svg"
   xmlns:svg="http://www.w3.org/2000/svg">
  <sodipodi:namedview
     id="namedview3"
     pagecolor="#ffffff"
     bordercolor="#666666"
     borderopacity="1.0"
     inkscape:showpageshadow="2"
     inkscape:pageopacity="0.0"
     inkscape:pagecheckerboard="0"
     inkscape:deskcolor="#d1d1d1"
     inkscape:zoom="0.42447917"
     inkscape:cx="1003.5828"
     inkscape:cy="286.23313"
     inkscape:window-width="1920"
     inkscape:window-height="1017"
     inkscape:window-x="-8"
     inkscape:window-y="-8"
     inkscape:window-maximized="1"
     inkscape:current-layer="Layer_1" />
  <defs
     id="defs1">
    <style
       id="style1">
      .cls-1 {
        fill: #c1272d;
      }

      .cls-1, .cls-2, .cls-3 {
        stroke-width: 0px;
      }

      .cls-2 {
        fill: #006233;
      }

      .cls-3 {
        fill: #fff;
      }

      .cls-4 {
        mask: url(#mask);
      }
    </style>
    <mask
       id="mask"
       x="-.37"
       y="-.14"
       width="960.37"
       height="960.37"
       maskUnits="userSpaceOnUse">
      <g
         id="a">
        <circle
           class="cls-3"
           cx="479.81"
           cy="480.04"
           r="480.19"
           id="circle1" />
      </g>
    </mask>
  </defs>
  <g
     class="cls-4"
     mask="url(#mask)"
     id="g3">
    <g
       id="g2">
      <path
         class="cls-1"
         d="M-.37-.14h960.37v960.37H-.37V-.14Z"
         id="path1" />
      <path
         class="cls-2"
         d="M763.61,393.76h-216.83l-66.96-205.77-66.96,205.77h-216.83l175.38,127.55-66.96,205.96,175.38-127.17,175.38,127.55-66.96-206.33,175.38-127.55ZM420.35,505.37l22.88-69.59h73.15l22.7,69.59-59.27,43.14-59.27-43.14h-.19ZM502.88,393.95h-46.14l23.07-71.09,23.07,71.09ZM574.73,479.67l-14.44-43.89h74.84l-60.4,43.89ZM399.16,435.78l-14.44,43.89-60.4-43.89h74.84ZM383.59,618.29l23.07-71.28,37.51,27.2-60.59,44.08ZM515.08,574.39l37.51-27.2,23.07,71.09-60.59-43.89Z"
         id="path2" />
    </g>
  </g>
</svg>
